X: 27035
T: Miss Graham
R: reel
M: 4/4
K: Dmajor
D2 AF A2 FA|BdAB AFEF|D2 AF A2 FA|BdAF E2 EA|
D2 AF A2 FA|BdAB AFEF|D2 AF A2 FA|(3Bcd AF D4||
dfef d2 AB|d2 Ad fede|faef d2 AF|(3Bcd AF E3A|
dfef d2 AB|d2 Ad fede|faef defd|AFdF E3F||

